src/front_assets/svg/icon_embed.svg

<?xml version="1.0" encoding="UTF-8"?>
<svg width="42px" height="42px" viewBox="0 0 42 42" version="1.1" xmlns="http://www.w3.org/2000/svg" xmlns:xlink="http://www.w3.org/1999/xlink">
    <!-- Generator: Sketch 57 (83077) - https://sketch.com -->
    <title>btn/share/emb</title>
    <desc>Created with Sketch.</desc>
    <defs>
        <rect id="path-1" x="0" y="0" width="42" height="42" rx="21"></rect>
    </defs>
    <g id="弹窗" stroke="none" stroke-width="1" fill="none" fill-rule="evenodd">
        <g id="share-on" transform="translate(-530.000000, -354.000000)">
            <g id="btn/share/emb" transform="translate(530.000000, 354.000000)">
                <mask id="mask-2" fill="white">
                    <use xlink:href="#path-1"></use>
                </mask>
                <use id="矩形备份-3" fill="#E9A438" xlink:href="#path-1"></use>
                <path d="M17.9234407,13.0000001 C18.2129255,12.9998997 18.4891348,13.1142117 18.6846345,13.3150277 C19.1051218,13.7452774 19.1051218,14.4067781 18.6846345,14.8370278 L12.522,21 L18.6846345,27.16264 C19.1051218,27.5929057 19.1051218,28.2544311 18.6846345,28.6846968 C18.4892135,28.8855881 18.2130491,29.0000001 17.9235643,29.0000001 C17.6340795,29.0000001 17.3579152,28.8855881 17.1624942,28.6846968 L10.3151076,21.8367611 C10.085374,21.6015346 9.98125825,21.2972533 10.0027604,20.9994352 C9.98141064,20.702279 10.085542,20.3982821 10.3151076,20.1632363 L17.1624942,13.3155557 C17.3578364,13.114604 17.6339559,13.0001005 17.9234407,13.0000001 Z M24.076193,13.0000001 C24.3244693,13.0000001 24.5628849,13.0840768 24.7487063,13.2345266 L24.8370363,13.3152007 L31.6849079,20.1634834 C31.9143715,20.3987766 32.0185062,20.7024489 31.9973119,20.9998054 C32.0187397,21.2969281 31.9146356,21.6009664 31.6849276,21.8364834 L31.6849276,21.8364834 L24.836358,28.6851448 C24.6414277,28.8856971 24.3653358,29.0000001 24.0758439,29.0000001 C23.7863521,29.0000001 23.5102602,28.8856971 23.3153299,28.6851448 C22.89489,28.2543469 22.89489,27.5940766 23.3153299,27.1632787 L23.3153299,27.1632787 L29.478,21 L23.3153497,14.8373346 C22.8948834,14.4064609 22.8948834,13.7460744 23.3153497,13.3152007 C23.5103031,13.1144378 23.7865373,13.0000001 24.076193,13.0000001 Z" id="矩形_4_拷贝_2" fill="#FFFFFF" mask="url(#mask-2)"></path>
            </g>
        </g>
    </g>
</svg>

<svg xmlns="http://www.w3.org/2000/svg" xmlns:xlink="http://www.w3.org/1999/xlink" width="42" height="42"><defs><rect id="a" width="42" height="42" x="0" y="0" rx="21"/></defs><g fill="none" fill-rule="evenodd"><mask id="b" fill="#fff"><use xlink:href="#a"/></mask><use xlink:href="#a" fill="#E9A438"/><path fill="#FFF" d="M17.923 13a1.076 1.076 0 0 1 .761 1.837L12.523 21l6.163 6.163a1.076 1.076 0 1 1-1.523 1.522l-6.847-6.848a1.08 1.08 0 0 1-.312-.838 1.08 1.08 0 0 1 .312-.836l6.847-6.847c.196-.201.472-.316.761-.316m6.153 0c.248 0 .487.084.673.235l.088.08 6.848 6.848c.23.236.334.54.312.837.022.297-.082.601-.312.836l-6.849 6.85c-.195.2-.47.314-.76.314s-.566-.114-.76-.315a1.076 1.076 0 0 1 0-1.522L29.477 21l-6.163-6.163A1.076 1.076 0 0 1 24.076 13" mask="url(#b)"/></g></svg>
